X:1
T:Title
%%score ( 1 2 ) { 3 | 4 }
L:1/8
Q:1/4=87
M:6/8
K:C
V:1 treble nm="Grand Piano, Soprano"
V:2 treble 
V:3 bass nm="Choir Pad, In the Hallowed Manger"
V:4 bass 
V:1
 [CE]2 [CE] DC[B,D] | [CE]3 [CG]3 | [CE]2 [CE] DC[A,D] | [CE]6 | [B,G]2 [B,G] E^F[EG] | %5
w: By~Thomas~Adams * * * *|||||
 G2- [CG] B,2 C | [DB]2 [DB] AG[_EA] | B3- [FB]3 | [Ec]2 [Ec] [FA][EG][FA] | c-[Ec-][Dc] [EG]3 | %10
w: |||||
 [EA]2 [EA] [FA][EG][DF] | [CE]3 [B,D]3 | .G3 .B3 | [Cc]3 [C^F]3 | z3 .A3 | [Ec]6 | %16
w: ||||||
[M:4/4][Q:1/4=90] [EG]2 [DA]>[DA] [Ec]4 | [Gc][Gc]/[Gc]/ [Fc][Fd] [Ee]3 [^Fe] | %18
w: ||
 dBE-[EG] [GB]2 [^FA]2 | G6 G2 | [Ec]2 de [Fc]2 BA | G>G [DA][DA] D3 [DF] | %22
w: ||||
 [CE]2 [B,A]2 [CG]2 [CE]C | [CE]4 [B,D]4 | C8 |] %25
w: |||
V:2
 z3 .A,3 | x6 | z3 .A,3 | x6 | x6 | .D3 D3 | z3 ._E3 | D3 z3 | x6 | .F3 z3 | x6 | x6 | %12
 B,-[B,A][B,G] D-[DA][B,G] | x6 | [CG]2 G F-[FG][Fd] | x6 |[M:4/4] x8 | x8 | G2 .A2 z4 | x8 | %20
 z2 E2 z2 F2 | x8 | x8 | x8 | x8 |] %25
V:3
 G,2 G, A,2 A, | G,3 E,3 | G,2 G, F,2 F, | G,6 | G,2 G, G,A,_B, | B,2 A, G,2 A, | G,2 G, G,2 ^F, | %7
 G,3[K:treble] D3 | C2 C C_B,A, | G,3 C3 | C2 C[K:bass] A,2 A, | G,2 A, B,3 | G,2 G, G,2 G, | %13
 G,3 A,3 | G,2[K:treble] C CB,B, | C6 |[M:4/4] C2 C>C C4 | EE/E/ C[K:bass]B, C3 A, | %18
 D2 B,2[K:treble] DE C2 | B,6 G,2 | G,2 G,2 G,A, B,2 | C>C CC C2[K:bass] B,A, | G,2 F,2 G,2 G,E, | %23
 G,4 G,4 | G,8 |] %25
V:4
 C,2 C, F,2 F, | C,3 C,3 | C,2 C, D,2 D, | C,6 | E,2 D, C,2 C, | G,,3 G,,3 | z3 C,2 C, | z6 | %8
 A,2 A, F,2 F, | C,3 C,2 B,, | A,,B,,C, D,2 D, | E,2 F, G,3 | F,2 F, F,2 F, | E,3 _E,3 | %14
 E,2 E, D,2 [G,,G,] | [C,G,]6 |[M:4/4] C,2 F,>F, [C,G,]4 | CC/C/ A,G,[K:bass] [C,G,]3 C, | %18
 B,,2 D,2 D,C, D,2 | G,6 z2 | C,2 C,2 D,2 D,2 | E,>E, F,F, G,3 B,, | C,2 D,2 E,2 C,2 | %23
 G,,4 [G,,F,]4 | [C,E,]8 |] %25

